X:1
T:Fuv 1 karácsony
T:Fuv 1 karácsony
L:1/8
M:4/4
K:G
V:1 treble nm="Fuvola" snm="Fuv."
V:1
 d' z (3d'd'd' e' z e' z | f' z d' z e'4 | d' z (3d'd'd' e' z e' z | f' z d' z e'4 | z8 | z8 | z8 | %7
 z4 z2 f' z | d' z (3d'd'd' e' z e' z | f' z d' z e'4 | z8 | z4 z2 z z/ (e/ | %12
 c') z/ (d'/ c') z/ (b/ a) z/ (g/ f) z/ (a/ | d') z/ (e'/ d') z/ (c'/ b) z/ (a/ g) z/ (b/ | %14
 e') z/ (d'/ c') z/ (e'/ f') z/ (e'/ d') z/ (f'/ | g') z/ (f'/ e') z/ (f'/ ^d') z f' z | %16
 b z (3bbb g z e' z | c' z z2 z2 e' z | b z b z e z e z | f z c' z b z ^d' z | b z (3bbb g z e' z | %21
 c' z z2 ^D2 B z | E z{^A} B z{^d} e z z2 | z8 | d' z (3d'd'd' e' z e' z | f' z d' z e'4 | %26
 d' z (3d'd'd' e' z e' z | f' z d' z e'4 | z8 | z8 | z8 | z4 z2 f' z | d' z (3d'd'd' e' z e' z | %33
 f' z d' z e'4 | z8 | z4 z2 z z/ (e/ | c') z/ (d'/ c') z/ (b/ a) z/ (g/ f) z/ (a/ | %37
 d') z/ (e'/ d') z/ (c'/ b) z/ (a/ g) z/ (b/ | e') z/ (d'/ c') z/ (e'/ f') z/ (e'/ d') z/ (f'/ | %39
 g') z/ (f'/ e') z/ (f'/ ^d') z f' z | z8 | z8 | g'/g'/g'/g'/ f'/e'/d'/c'/ b/b/b/b/ b/c'/b/c'/ | %43
 a/a/a/a/ a/b/a/b/ g/a/f/g/ e z/ z/ | z8 | z8 | g'/g'/g'/g'/ f'/e'/d'/c'/ b/b/b/b/ b/c'/b/c'/ | %47
 a/a/a/a/ a/b/a/b/ g/a/f/g/ e/f/g/b/ | d' z z z (^c/d/e/)f/ (B/c/d/)f/ | (^g/a/)b/^c'/ d' z z4 | %50
 d' z z z (^c/d/e/)f/ (B/c/d/)f/ | (^g/a/)b/^c'/ d' z z2 z z/ (e/ | %52
 c') z/ (d'/ c') z/ (b/ a) z/ (g/ f) z/ (a/ | d') z/ (e'/ d') z/ (c'/ b) z/ (a/ g) z/ (b/ | %54
 e') z/ (d'/ c') z/ (e'/ f') z/ (e'/ d') z/ (f'/ | g') z/ (f'/ e') z/ (f'/ g') z g' z |] %56

